src/qt/ktv/res/img/ic-watch-password-white.svg

<svg xmlns="http://www.w3.org/2000/svg" id="Group_9077" width="24" height="24" data-name="Group 9077" viewBox="0 0 24 24">
    <defs>
        <style type="text/css">
            .cls-1{opacity:.7}.cls-1{fill:#fff}.cls-2{fill:none}
        </style>
    </defs>
    <g id="Group_8292" data-name="Group 8292" transform="translate(8 8)">
        <path id="Path_18418" d="M14 18a4 4 0 1 1 4-4 3.961 3.961 0 0 1-4 4zm0-6.4a2.4 2.4 0 1 0 2.4 2.4 2.357 2.357 0 0 0-2.4-2.4z" class="cls-1" data-name="Path 18418" transform="translate(-10 -10)"/>
    </g>
    <path id="Rectangle_3656" d="M0 0h24v24H0z" class="cls-2" data-name="Rectangle 3656"/>
    <g id="Group_8293" data-name="Group 8293" transform="translate(.95 4)">
        <path id="Path_18419" d="M12 22c-4.562 0-8.337-2.578-10.932-7.556a.9.9 0 0 1 0-.889C3.663 8.578 7.438 6 12 6s8.337 2.578 10.932 7.556a.9.9 0 0 1 0 .889C20.337 19.422 16.562 22 12 22zm-9.28-8c1.573 2.933 4.48 6.222 9.28 6.222s7.707-3.289 9.28-6.222C19.707 11.067 16.8 7.778 12 7.778S4.293 11.067 2.72 14z" class="cls-1" data-name="Path 18419" transform="translate(-.95 -6)"/>
    </g>
</svg>

<?xml version="1.0" encoding="UTF-8" standalone="no"?>
<!DOCTYPE svg PUBLIC "-//W3C//DTD SVG 1.1//EN" "http://www.w3.org/Graphics/SVG/1.1/DTD/svg11.dtd">
<svg width="100%" height="100%" viewBox="0 0 24 24" version="1.1" xmlns="http://www.w3.org/2000/svg" xmlns:xlink="http://www.w3.org/1999/xlink" xml:space="preserve" xmlns:serif="http://www.serif.com/" style="fill-rule:evenodd;clip-rule:evenodd;stroke-linejoin:round;stroke-miterlimit:2;">
    <g transform="matrix(1,0,0,1,-2,-2)">
        <g id="Group_8292">
            <path id="Path_18418" d="M14,18C11.806,18 10,16.194 10,14C10,11.806 11.806,10 14,10C16.194,10 18,11.806 18,14C18,14.013 18,14.026 18,14.039C18,16.212 16.212,18 14.039,18C14.026,18 14.013,18 14,18ZM14,11.6C12.683,11.6 11.6,12.683 11.6,14C11.6,15.317 12.683,16.4 14,16.4C15.317,16.4 16.4,15.317 16.4,14C16.4,13.986 16.4,13.971 16.4,13.957C16.4,12.664 15.336,11.6 14.043,11.6C14.029,11.6 14.014,11.6 14,11.6Z" style="fill-opacity:0.7;fill-rule:nonzero;"/>
        </g>
    </g>
    <g transform="matrix(1,0,0,1,0,-2)">
        <g id="Group_8293">
            <path id="Path_18419" d="M12,22C7.438,22 3.663,19.422 1.068,14.444C0.912,14.169 0.912,13.83 1.068,13.555C3.663,8.578 7.438,6 12,6C16.562,6 20.337,8.578 22.932,13.556C23.088,13.831 23.088,14.17 22.932,14.445C20.337,19.422 16.562,22 12,22ZM2.72,14C4.293,16.933 7.2,20.222 12,20.222C16.8,20.222 19.707,16.933 21.28,14C19.707,11.067 16.8,7.778 12,7.778C7.2,7.778 4.293,11.067 2.72,14Z" style="fill-opacity:0.7;fill-rule:nonzero;"/>
        </g>
    </g>
</svg>
